src/Assets/icons/instagram.svg

<svg width="17" height="17" viewBox="0 0 17 17" fill="none" xmlns="http://www.w3.org/2000/svg">
<path d="M8.3335 1.96309C10.471 1.96309 10.7241 1.97246 11.5647 2.00996C12.346 2.04434 12.7679 2.17559 13.0491 2.28496C13.421 2.42871 13.6897 2.60371 13.9679 2.88184C14.2491 3.16309 14.421 3.42871 14.5647 3.80059C14.6741 4.08184 14.8054 4.50684 14.8397 5.28496C14.8772 6.12871 14.8866 6.38184 14.8866 8.51621C14.8866 10.6537 14.8772 10.9068 14.8397 11.7475C14.8054 12.5287 14.6741 12.9506 14.5647 13.2318C14.421 13.6037 14.246 13.8725 13.9679 14.1506C13.6866 14.4318 13.421 14.6037 13.0491 14.7475C12.7679 14.8568 12.3429 14.9881 11.5647 15.0225C10.721 15.06 10.4679 15.0693 8.3335 15.0693C6.196 15.0693 5.94287 15.06 5.10225 15.0225C4.321 14.9881 3.89912 14.8568 3.61787 14.7475C3.246 14.6037 2.97725 14.4287 2.69912 14.1506C2.41787 13.8693 2.246 13.6037 2.10225 13.2318C1.99287 12.9506 1.86162 12.5256 1.82725 11.7475C1.78975 10.9037 1.78037 10.6506 1.78037 8.51621C1.78037 6.37871 1.78975 6.12559 1.82725 5.28496C1.86162 4.50371 1.99287 4.08184 2.10225 3.80059C2.246 3.42871 2.421 3.15996 2.69912 2.88184C2.98037 2.60059 3.246 2.42871 3.61787 2.28496C3.89912 2.17559 4.32412 2.04434 5.10225 2.00996C5.94287 1.97246 6.196 1.96309 8.3335 1.96309ZM8.3335 0.522461C6.16162 0.522461 5.88975 0.531836 5.03662 0.569336C4.18662 0.606836 3.60225 0.744336 3.096 0.941211C2.56787 1.14746 2.121 1.41934 1.67725 1.86621C1.23037 2.30996 0.958496 2.75684 0.752246 3.28184C0.555371 3.79121 0.417871 4.37246 0.380371 5.22246C0.342871 6.07871 0.333496 6.35059 0.333496 8.52246C0.333496 10.6943 0.342871 10.9662 0.380371 11.8193C0.417871 12.6693 0.555371 13.2537 0.752246 13.76C0.958496 14.2881 1.23037 14.735 1.67725 15.1787C2.121 15.6225 2.56787 15.8975 3.09287 16.1006C3.60225 16.2975 4.1835 16.435 5.0335 16.4725C5.88662 16.51 6.1585 16.5193 8.33037 16.5193C10.5022 16.5193 10.7741 16.51 11.6272 16.4725C12.4772 16.435 13.0616 16.2975 13.5679 16.1006C14.0929 15.8975 14.5397 15.6225 14.9835 15.1787C15.4272 14.735 15.7022 14.2881 15.9054 13.7631C16.1022 13.2537 16.2397 12.6725 16.2772 11.8225C16.3147 10.9693 16.3241 10.6975 16.3241 8.52559C16.3241 6.35371 16.3147 6.08184 16.2772 5.22871C16.2397 4.37871 16.1022 3.79434 15.9054 3.28809C15.7085 2.75684 15.4366 2.30996 14.9897 1.86621C14.546 1.42246 14.0991 1.14746 13.5741 0.944336C13.0647 0.747461 12.4835 0.609961 11.6335 0.572461C10.7772 0.531836 10.5054 0.522461 8.3335 0.522461Z" fill="#232536"/>
<path d="M8.3335 4.41309C6.06475 4.41309 4.22412 6.25371 4.22412 8.52246C4.22412 10.7912 6.06475 12.6318 8.3335 12.6318C10.6022 12.6318 12.4429 10.7912 12.4429 8.52246C12.4429 6.25371 10.6022 4.41309 8.3335 4.41309ZM8.3335 11.1881C6.86162 11.1881 5.66787 9.99434 5.66787 8.52246C5.66787 7.05059 6.86162 5.85684 8.3335 5.85684C9.80537 5.85684 10.9991 7.05059 10.9991 8.52246C10.9991 9.99434 9.80537 11.1881 8.3335 11.1881Z" fill="#232536"/>
<path d="M13.5647 4.25051C13.5647 4.78176 13.1335 5.20989 12.6054 5.20989C12.0741 5.20989 11.646 4.77864 11.646 4.25051C11.646 3.71926 12.0772 3.29114 12.6054 3.29114C13.1335 3.29114 13.5647 3.72239 13.5647 4.25051Z" fill="#232536"/>
</svg>

<svg xmlns="http://www.w3.org/2000/svg" width="17" height="17" fill="#232536" xmlns:v="https://vecta.io/nano"><path d="M8.334 1.963l3.231.047c.781.034 1.203.166 1.484.275.372.144.641.319.919.597a2.46 2.46 0 0 1 .597.919c.109.281.241.706.275 1.484l.047 3.231-.047 3.231c-.034.781-.166 1.203-.275 1.484-.144.372-.319.641-.597.919a2.46 2.46 0 0 1-.919.597c-.281.109-.706.241-1.484.275l-3.231.047c-2.138 0-2.391-.009-3.231-.047-.781-.034-1.203-.166-1.484-.275-.372-.144-.641-.319-.919-.597a2.46 2.46 0 0 1-.597-.919c-.109-.281-.241-.706-.275-1.484L1.78 8.516l.047-3.231c.034-.781.166-1.203.275-1.484.144-.372.319-.641.597-.919a2.46 2.46 0 0 1 .919-.597c.281-.109.706-.241 1.484-.275l3.231-.047zm0-1.441L5.037.569c-.85.038-1.434.175-1.941.372-.528.206-.975.478-1.419.925a3.92 3.92 0 0 0-.925 1.416c-.197.509-.334 1.09-.372 1.94l-.047 3.3.047 3.297c.037.85.175 1.434.372 1.941.206.528.478.975.925 1.419a3.91 3.91 0 0 0 1.416.922c.509.197 1.091.334 1.941.372l3.297.047 3.297-.047c.85-.038 1.434-.175 1.941-.372a3.91 3.91 0 0 0 1.416-.922 3.91 3.91 0 0 0 .922-1.416c.197-.509.334-1.091.372-1.941l.047-3.297-.047-3.297c-.038-.85-.175-1.434-.372-1.941a3.75 3.75 0 0 0-.916-1.422 3.91 3.91 0 0 0-1.416-.922c-.51-.196-1.091-.333-1.941-.371l-3.3-.05zm0 3.891a4.11 4.11 0 0 0-4.109 4.109 4.11 4.11 0 0 0 4.109 4.109 4.11 4.11 0 0 0 4.109-4.109 4.11 4.11 0 0 0-4.109-4.109zm0 6.775c-1.472 0-2.666-1.194-2.666-2.666s1.194-2.666 2.666-2.666S11 7.05 11 8.522s-1.194 2.666-2.666 2.666zm5.231-6.937a.96.96 0 0 1-.959.959.96.96 0 0 1-.959-.959.96.96 0 0 1 .959-.959.96.96 0 0 1 .959.959z"/></svg>
